packages/core/src/svgs/hord.svg

<svg width="24" height="24" viewBox="0 0 24 24" fill="none" xmlns="http://www.w3.org/2000/svg">
<g clip-path="url(#clip0_31_11566)">
<path d="M0 0H24V24H0V0Z" fill="url(#paint0_linear_31_11566)"/>
<path d="M6.80585 4.28564C6.92585 5.29279 8.113 7.70136 11.7773 7.55564C12.133 7.54279 12.8701 7.82993 13.0287 8.76422C13.2216 9.93422 11.8587 10.4228 10.4744 10.4228C10.6905 10.347 10.8931 10.237 11.0744 10.0971C9.58728 10.0456 6.373 8.35707 6.80585 4.28564ZM15.5573 7.90707C16.3847 7.62096 17.0934 7.06759 17.5716 6.33422C17.559 6.84451 17.4254 7.34452 17.1817 7.79307C16.9381 8.24162 16.5914 8.62588 16.1701 8.91422C16.0297 8.54359 15.8219 8.20213 15.5573 7.90707ZM9.24871 11.2071C10.3201 10.9371 13.063 10.4571 15.463 10.7271C15.4801 10.6071 15.5059 10.3456 15.4159 10.2985C14.61 10.1825 13.7917 10.1825 12.9859 10.2985C13.7518 9.96684 14.5816 9.80878 15.4159 9.83564C15.2952 9.00867 14.9243 8.23845 14.353 7.6285C14.1816 7.63279 13.783 7.60279 13.5816 7.46993C13.333 7.2985 12.9816 7.04564 13.1359 6.86993C13.2644 6.72422 13.7359 6.84422 13.9501 6.92136C14.2073 7.0285 14.6701 7.31993 14.5287 7.6285C15.0987 7.97136 16.2259 9.23993 16.183 11.3528C14.5673 10.8856 10.8859 11.0399 9.24871 11.2114V11.2071ZM12.8916 11.6956C11.263 10.8514 9.21871 11.9099 8.39585 12.5485C8.94014 12.5485 10.2344 12.4242 11.0316 11.8885C10.5974 12.4251 9.98122 12.7835 9.30014 12.8956C11.0359 13.2642 12.4201 12.2528 12.8959 11.6956H12.8916ZM13.963 11.7214C14.6487 11.5928 16.0416 11.4214 16.0759 11.8114C16.1059 12.2056 14.6787 11.9142 13.9587 11.7256L13.963 11.7214ZM13.3201 14.3485C13.0073 14.2499 12.4459 13.7999 12.733 12.7799C13.0201 11.7599 14.1216 11.9828 14.6359 12.2228C14.5073 12.2914 14.233 12.4885 14.1601 12.7799C14.8116 12.3685 16.213 11.9442 16.5944 13.5514C16.6073 13.6799 16.6073 13.9456 16.5001 14.0271C16.4401 14.0742 16.4016 14.0442 16.3373 13.9928C16.2516 13.9328 16.1359 13.8428 15.8959 13.8428C15.7716 13.9028 15.5016 14.0271 15.3901 14.0271C15.253 14.0271 15.1373 13.6285 15.4716 13.5085C15.3687 13.4656 15.1201 13.4956 14.9401 13.9585C14.8973 14.0014 14.7859 14.0956 14.6959 14.0956C14.5887 14.0956 14.053 13.7485 14.9401 12.9856C14.6487 12.9899 14.0487 13.2171 13.9759 14.0999C13.8144 13.9907 13.6868 13.8385 13.6073 13.6605C13.5277 13.4826 13.4995 13.2859 13.5259 13.0928C13.3716 13.1614 13.1144 13.5128 13.3201 14.3485ZM7.91585 13.8771C8.13492 13.5899 8.4327 13.3725 8.773 13.2514C8.113 14.0442 8.28871 15.1885 8.46014 15.6599C8.47628 15.229 8.58672 14.8069 8.78369 14.4234C8.98066 14.0398 9.25936 13.7041 9.60014 13.4399C9.33014 15.2871 9.48871 16.3028 9.60014 16.5814C7.81728 16.7099 6.74157 16.0242 6.42871 15.6599C6.58728 15.5571 7.62014 14.3142 7.91585 13.8771ZM10.0501 13.7056C10.6159 14.2199 12.0301 15.3128 13.1573 15.5828L13.4573 16.6885L13.9287 16.2471C14.233 16.2899 14.9273 16.3499 15.2273 16.2471L15.7073 16.8899L15.8401 16.1614C15.973 16.1485 16.2473 16.1699 16.273 16.3628C16.3459 16.8514 16.6801 17.9485 17.443 18.4199C16.843 18.4671 15.5659 18.3085 15.2273 17.3056C15.1373 17.3742 14.9144 17.5971 14.7559 17.9356C14.1001 18.1414 12.5873 18.0042 11.8159 15.7928C11.7559 16.1442 11.683 16.9928 11.9016 17.5328C11.1987 17.3999 9.84443 16.4442 10.0501 13.7056ZM15.2787 14.2585C14.713 14.1428 13.7359 14.8671 13.3116 15.2442C13.5816 15.2442 14.1259 15.0942 14.3616 15.0214L14.2544 15.2828C15.223 14.5414 15.3344 14.9314 15.283 14.8842C15.2401 14.8414 15.0387 14.9571 14.9444 15.0214C15.1416 15.0514 15.5873 15.1071 15.7759 15.0814C15.9644 15.0556 16.0973 14.8842 16.1401 14.8028V15.0171C16.1616 15.0085 16.2087 14.9185 16.2216 14.6314C16.2301 14.3485 15.4501 14.3485 15.0516 14.3828L15.283 14.2542L15.2787 14.2585ZM14.533 15.2956C14.7516 15.2828 15.1759 15.2828 15.133 15.3728C15.0816 15.4628 14.6359 15.6385 14.4173 15.7156C14.6144 15.6128 14.9144 15.3856 14.533 15.2956ZM14.5973 15.9942C14.9059 15.7285 15.673 15.2228 16.2816 15.3256C16.8901 15.4285 16.6501 15.7285 16.453 15.8656H16.0416C15.9559 15.8142 15.5401 15.7628 14.5973 15.9942ZM12.1501 12.6385C11.8073 13.2256 11.023 13.5428 10.6716 13.6285C10.8473 13.8642 11.3016 14.3142 11.7001 14.2071C12.0901 14.1042 12.163 13.1185 12.1501 12.6385Z" fill="#FEFEFE"/>
</g>
<defs>
<linearGradient id="paint0_linear_31_11566" x1="4.46571" y1="4.16143" x2="29.2071" y2="32.58" gradientUnits="userSpaceOnUse">
<stop stop-color="#1A1E21"/>
<stop offset="1" stop-color="#06060A"/>
</linearGradient>
<clipPath id="clip0_31_11566">
<rect width="24" height="24" fill="white"/>
</clipPath>
</defs>
</svg>

<svg xmlns="http://www.w3.org/2000/svg" width="24" height="24" fill="none" viewBox="0 0 24 24"><g clip-path="url(#a)"><path fill="url(#b)" d="M0 0h24v24H0z"/><path fill="#FEFEFE" d="M6.806 4.286c.12 1.007 1.307 3.415 4.971 3.27.356-.013 1.093.274 1.252 1.208.193 1.17-1.17 1.659-2.555 1.659.216-.076.42-.186.6-.326-1.487-.051-4.701-1.74-4.268-5.811m8.751 3.621a3.94 3.94 0 0 0 2.015-1.573 3.22 3.22 0 0 1-1.402 2.58 3.2 3.2 0 0 0-.613-1.007m-6.308 3.3c1.071-.27 3.814-.75 6.214-.48.017-.12.043-.381-.047-.428a8.5 8.5 0 0 0-2.43 0 5.66 5.66 0 0 1 2.43-.463 4.1 4.1 0 0 0-1.063-2.208c-.171.005-.57-.025-.771-.158-.249-.171-.6-.424-.446-.6.128-.146.6-.026.814.051.257.107.72.399.579.707.57.343 1.697 1.612 1.654 3.725-1.616-.467-5.297-.313-6.934-.142zm3.643.489c-1.629-.845-3.673.214-4.496.853.544 0 1.838-.125 2.636-.66A2.82 2.82 0 0 1 9.3 12.896c1.736.368 3.12-.643 3.596-1.2zm1.071.025c.686-.128 2.079-.3 2.113.09.03.395-1.397.103-2.117-.085zm-.643 2.627c-.313-.098-.874-.548-.587-1.568s1.389-.797 1.903-.557c-.129.068-.403.265-.476.557.652-.412 2.053-.836 2.434.771.013.129.013.395-.094.476-.06.047-.098.017-.163-.034-.085-.06-.201-.15-.441-.15-.124.06-.394.184-.506.184-.137 0-.253-.398.082-.518-.103-.043-.352-.013-.532.45-.043.042-.154.137-.244.137-.107 0-.643-.348.244-1.11-.291.004-.891.231-.964 1.114a1.04 1.04 0 0 1-.45-1.007c-.154.068-.412.42-.206 1.255m-5.404-.47c.219-.288.517-.505.857-.627-.66.793-.484 1.938-.313 2.409a2.95 2.95 0 0 1 1.14-2.22c-.27 1.847-.111 2.863 0 3.141-1.783.129-2.858-.557-3.171-.921.158-.103 1.191-1.346 1.487-1.783m2.134-.172c.566.514 1.98 1.607 3.107 1.877l.3 1.106.472-.442c.304.043.998.103 1.298 0l.48.643.133-.729c.133-.013.407.009.433.202.073.488.407 1.585 1.17 2.057-.6.047-1.877-.112-2.216-1.114-.09.068-.313.291-.471.63-.656.205-2.169.068-2.94-2.143-.06.351-.133 1.2.086 1.74-.703-.133-2.058-1.089-1.852-3.827m5.229.553c-.566-.116-1.543.608-1.967.985.27 0 .814-.15 1.05-.223l-.108.262c.969-.742 1.08-.352 1.029-.399-.043-.043-.244.073-.339.137.198.03.643.086.832.06s.321-.197.364-.278v.214c.022-.008.069-.098.082-.386.008-.283-.772-.283-1.17-.248l.231-.129zm-.746 1.037c.219-.013.643-.013.6.077-.051.09-.497.266-.716.343.197-.103.497-.33.116-.42m.064.698c.309-.265 1.076-.771 1.685-.668.608.102.368.402.171.54h-.411c-.086-.052-.502-.103-1.445.128M12.15 12.64c-.343.587-1.127.904-1.478.99.175.235.63.685 1.028.578.39-.103.463-1.089.45-1.569"/></g><defs><linearGradient id="b" x1="4.466" x2="29.207" y1="4.161" y2="32.58" gradientUnits="userSpaceOnUse"><stop stop-color="#1A1E21"/><stop offset="1" stop-color="#06060A"/></linearGradient><clipPath id="a"><path fill="#fff" d="M0 0h24v24H0z"/></clipPath></defs></svg>
